X: 1
T:Polska i A efter John-Erik Mattson
R:Sydjmtsk polska
N:Efter vrmlnningen Ferm, Handsjbyn
A:Digerberget, S. Jmtland
O:Sweden
Z:Lennart Sohlman, lta, Sweden
M:3/4
L:1/8
Q:144
K:A
A,>A, (3.C.A,.C E>(E|A>)A (3.c.A.c e>(e|f>)e d>c B>B|e>d (3.c.e.c A2|
A,>A, (3.C.A,.C E>(E|A>)A (3.c.A.c e>(e|f>)e d>c B>A|(GB) A4::
a>(a f>)(f d>)d|c>e ae cA|Bc dE GB|A>A (3.c.A.c e2|\
a>(a f>)(f d>)d|c>e ae cA|Bc dE GB|A2 A4:|\
T:Andrastmma
E2 A,2 C2|A,2 (3.C.A,.C E>(A|d>)c B>A G>E|c>B (3.A.c.A E2|\
A2 E2 C2|A,2 (3.C.A,.C E2|D2 E2 G>E|(B,D) [C4E4]::\
D>F [F2A2][F2A2]|E>A [c2e2] [c2e2]|E2 G2 BG|E>C A,2 [C2E2]|\
f>(f d>)(d A>)A|E>A cA EC|B,E D2 [B,2D2]|A,2 [C4E4]:|\
